src/main/resources/static/images/backgrounds/liquid-cheese.svg

﻿<svg xmlns='http://www.w3.org/2000/svg' width='100%' height='100%' viewBox='0 0 1600 800'><rect fill='#3035A6' width='1600' height='800'/><g fill-opacity='1'><path fill='#2e34b9'  d='M486 705.8c-109.3-21.8-223.4-32.2-335.3-19.4C99.5 692.1 49 703 0 719.8V800h843.8c-115.9-33.2-230.8-68.1-347.6-92.2C492.8 707.1 489.4 706.5 486 705.8z'/><path fill='#2c32ce'  d='M1600 0H0v719.8c49-16.8 99.5-27.8 150.7-33.5c111.9-12.7 226-2.4 335.3 19.4c3.4 0.7 6.8 1.4 10.2 2c116.8 24 231.7 59 347.6 92.2H1600V0z'/><path fill='#3038da'  d='M478.4 581c3.2 0.8 6.4 1.7 9.5 2.5c196.2 52.5 388.7 133.5 593.5 176.6c174.2 36.6 349.5 29.2 518.6-10.2V0H0v574.9c52.3-17.6 106.5-27.7 161.1-30.9C268.4 537.4 375.7 554.2 478.4 581z'/><path fill='#3a41e3'  d='M0 0v429.4c55.6-18.4 113.5-27.3 171.4-27.7c102.8-0.8 203.2 22.7 299.3 54.5c3 1 5.9 2 8.9 3c183.6 62 365.7 146.1 562.4 192.1c186.7 43.7 376.3 34.4 557.9-12.6V0H0z'/><path fill='#444BEA'  d='M181.8 259.4c98.2 6 191.9 35.2 281.3 72.1c2.8 1.1 5.5 2.3 8.3 3.4c171 71.6 342.7 158.5 531.3 207.7c198.8 51.8 403.4 40.8 597.3-14.8V0H0v283.2C59 263.6 120.6 255.7 181.8 259.4z'/><path fill='#3a41e3'  d='M1600 0H0v136.3c62.3-20.9 127.7-27.5 192.2-19.2c93.6 12.1 180.5 47.7 263.3 89.6c2.6 1.3 5.1 2.6 7.7 3.9c158.4 81.1 319.7 170.9 500.3 223.2c210.5 61 430.8 49 636.6-16.6V0z'/><path fill='#3038da'  d='M454.9 86.3C600.7 177 751.6 269.3 924.1 325c208.6 67.4 431.3 60.8 637.9-5.3c12.8-4.1 25.4-8.4 38.1-12.9V0H288.1c56 21.3 108.7 50.6 159.7 82C450.2 83.4 452.5 84.9 454.9 86.3z'/><path fill='#2c32ce'  d='M1600 0H498c118.1 85.8 243.5 164.5 386.8 216.2c191.8 69.2 400 74.7 595 21.1c40.8-11.2 81.1-25.2 120.3-41.7V0z'/><path fill='#2e34b9'  d='M1397.5 154.8c47.2-10.6 93.6-25.3 138.6-43.8c21.7-8.9 43-18.8 63.9-29.5V0H643.4c62.9 41.7 129.7 78.2 202.1 107.4C1020.4 178.1 1214.2 196.1 1397.5 154.8z'/><path fill='#3035A6'  d='M1315.3 72.4c75.3-12.6 148.9-37.1 216.8-72.4h-723C966.8 71 1144.7 101 1315.3 72.4z'/></g></svg>

<svg width="1600" height="800" viewBox="0 0 1600 800" fill="none" xmlns="http://www.w3.org/2000/svg">
<g clip-path="url(#clip0_288_14)">
<path d="M493.603 702.615C382.593 679.383 266.708 668.3 153.057 681.941C101.057 688.015 49.7665 699.631 0 717.534V803H857C739.287 767.62 622.589 730.428 503.962 704.746C500.509 704 497.056 703.361 493.603 702.615Z" fill="#20204F"/>
<path d="M1600 0H0V719.8C49 703 99.5 692 150.7 686.3C262.6 673.6 376.7 683.9 486 705.7C489.4 706.4 492.8 707.1 496.2 707.7C613 731.7 727.9 766.7 843.8 799.9H1600V0Z" fill="#2D2D6A"/>
<path d="M478.4 581C481.6 581.8 484.8 582.7 487.9 583.5C684.1 636 876.6 717 1081.4 760.1C1255.6 796.7 1430.9 789.3 1600 749.9V0H0V574.9C52.3 557.3 106.5 547.2 161.1 544C268.4 537.4 375.7 554.2 478.4 581Z" fill="#343470"/>
<path d="M0 0V429.4C55.6 411 113.5 402.1 171.4 401.7C274.2 400.9 374.6 424.4 470.7 456.2C473.7 457.2 476.6 458.2 479.6 459.2C663.2 521.2 845.3 605.3 1042 651.3C1228.7 695 1418.3 685.7 1599.9 638.7V0H0Z" fill="#3C3E78"/>
<path d="M181.8 259.4C280 265.4 373.7 294.6 463.1 331.5C465.9 332.6 468.6 333.8 471.4 334.9C642.4 406.5 814.1 493.4 1002.7 542.6C1201.5 594.4 1406.1 583.4 1600 527.8V0H0V283.2C59 263.6 120.6 255.7 181.8 259.4Z" fill="#41437B"/>
<path d="M1600 0H0V136.3C62.3 115.4 127.7 108.8 192.2 117.1C285.8 129.2 372.7 164.8 455.5 206.7C458.1 208 460.6 209.3 463.2 210.6C621.6 291.7 782.9 381.5 963.5 433.8C1174 494.8 1394.3 482.8 1600.1 417.2V0H1600Z" fill="#3C3E78"/>
<path d="M454.9 86.3C600.7 177 751.6 269.3 924.1 325C1132.7 392.4 1355.4 385.8 1562 319.7C1574.8 315.6 1587.4 311.3 1600.1 306.8V0H288.1C344.1 21.3 396.8 50.6 447.8 82C450.2 83.4 452.5 84.9 454.9 86.3Z" fill="#343470"/>
<path d="M1600 0H498C616.1 85.8 741.5 164.5 884.8 216.2C1076.6 285.4 1284.8 290.9 1479.8 237.3C1520.6 226.1 1560.9 212.1 1600.1 195.6V0H1600Z" fill="#2D2D6A"/>
<path d="M1397.5 154.8C1444.7 144.2 1491.1 129.5 1536.1 111C1557.8 102.1 1579.1 92.2 1600 81.5V0H643.4C706.3 41.7 773.1 78.2 845.5 107.4C1020.4 178.1 1214.2 196.1 1397.5 154.8Z" fill="#20204F"/>
<path d="M1315.3 72.4C1390.6 59.8 1464.2 35.3 1532.1 0H809.1C966.8 71 1144.7 101 1315.3 72.4Z" fill="#1C1C40"/>
</g>
<defs>
<clipPath id="clip0_288_14">
<rect width="1600" height="800" fill="white"/>
</clipPath>
</defs>
</svg>
